svg/fluentui-system-icons/ic_fluent_calendar_lock_28_regular.svg

<svg width="28" height="28" viewBox="0 0 28 28" fill="none" xmlns="http://www.w3.org/2000/svg">
<path d="M21.75 3C23.5449 3 25 4.45507 25 6.25V15.062C24.6477 14.4272 24.1278 13.8983 23.5 13.5351V9.503H4.5V21.75C4.5 22.7165 5.2835 23.5 6.25 23.5H15V25H6.25C4.45507 25 3 23.5449 3 21.75V6.25C3 4.45507 4.45507 3 6.25 3H21.75ZM21.75 4.5H6.25C5.2835 4.5 4.5 5.2835 4.5 6.25V8.003H23.5V6.25C23.5 5.2835 22.7165 4.5 21.75 4.5ZM18.5 18H18C16.8954 18 16 18.8954 16 20V25C16 26.1046 16.8954 27 18 27H25C26.1046 27 27 26.1046 27 25V20C27 18.8954 26.1046 18 25 18H24.5V17C24.5 15.3431 23.1569 14 21.5 14C19.8431 14 18.5 15.3431 18.5 17V18ZM20 17C20 16.1716 20.6716 15.5 21.5 15.5C22.3284 15.5 23 16.1716 23 17V18H20V17ZM23 22.5C23 23.3284 22.3284 24 21.5 24C20.6716 24 20 23.3284 20 22.5C20 21.6716 20.6716 21 21.5 21C22.3284 21 23 21.6716 23 22.5Z" fill="#212121"/>
</svg>

<svg xmlns="http://www.w3.org/2000/svg" width="28" height="28"><path d="M21.75 3A3.25 3.25 0 0 1 25 6.25v8.812a4.02 4.02 0 0 0-1.5-1.527V9.503h-19V21.75c0 .966.784 1.75 1.75 1.75H15V25H6.25A3.25 3.25 0 0 1 3 21.75V6.25A3.25 3.25 0 0 1 6.25 3h15.5Zm0 1.5H6.25A1.75 1.75 0 0 0 4.5 6.25v1.753h19V6.25a1.75 1.75 0 0 0-1.75-1.75ZM18.5 18H18a2 2 0 0 0-2 2v5a2 2 0 0 0 2 2h7a2 2 0 0 0 2-2v-5a2 2 0 0 0-2-2h-.5v-1a3 3 0 1 0-6 0v1Zm1.5-1a1.5 1.5 0 0 1 3 0v1h-3v-1Zm3 5.5a1.5 1.5 0 1 1-3 0 1.5 1.5 0 0 1 3 0Z"/></svg>
